X: 1
T: Planxty Charles Coote
M: 4/4
L: 1/8
R: reel
K: Cmaj
GF |: E2 G2 D2 G2 | FEDC E2 G2 | AB c2 dedc | cBAB G2 ed|
c2 g2 gagf| edef g2 fe | fedc cBAB | ({B} c4) c :| cd |
|: e2 g2 gagf | efge c'2 c2 | efge c'bag | agfe d2 z2  |
({g}f)efe d2 eg | fedc cBAB | cBce dBGB | [E4c4] [E2c2] :|
